X:1
T: Miss Grace Menzies
C:William Marshall
R:Strathspey
Q: 128
K:F
M:4/4
L:1/16
|:d2|cF3 c3A cF3 c3A|cF3 c3A c4 c2e2|fa3 d3f cf3 Af3|G2G2 B3c d4 d3f|
cF3 c3A cF3 c3A|cF3 c3A c4 c2e2|fa3 d3f cf3 Af3|G2G2 B3c d4 d2f2|
cf3 A3f cf3 A3f|cf3 A3B c4 c2f2|cf3 A3f cf3 a3g|fd3 c3A A2 G2G3f|
cf3 A3f cf3 A3f|cf3 A3B c4 c2e2|fa3 d3f cf3 A3f|G2G2 B3c d4 d2:|
